X:230
T: ICH SOLL UND MAG NICHT SCHLAFEN GEHN
N: E0816A
O: Europa, Mitteleuropa, Deutschland, Schlesien
R: Kilt - Lied
M: 3/4
L: 1/8
K: F
c | fcA2B2 | cAF3
A | BGE2F2 | GEC2z
F | EGB2AG | FAc3
e | fdc2dB | AGF2z

